Papirus/48x48/apps/steam_icon_341800.svg

<svg width="48" height="48" version="1.1" xmlns="http://www.w3.org/2000/svg">
 <circle cx="19.714285" cy="29.286142" r="14.285714" style="opacity:.2"/>
 <path d="m33.285714 25.000429 2.142857-2.857143-5.714286-6.428571-4.285714 0.714285z" style="opacity:.2"/>
 <path d="m33.091183 19.575625s2.804588 0.25099 3.833407-0.628682c1.028819-0.879671 0.878916-1.116878 0.840984-1.690431-0.03793-0.573552-0.464819-0.800881-0.46747-1.484577-0.0026-0.683696 0.273324-0.771506 0.273324-0.771506h0.714286l0.714285 2.142857v-1.428571l2.857143 1.428571-2.142857-2.142857h2.857143l-2.857143-2.142857 2.857143-2.142857-3.571429 0.714285 1.428572-5-3.039977 4.518981-1.245737-3.090409v2.857143l-1.428572-1.4285717 0.504093 2.5390467-3.361236-1.110475 2.857143 2.142857 1.428572 0.714285s-0.260877 1.24046-0.191602 1.878295c0.06927 0.637835 0.563852 1.365913 0.540987 1.808955-0.02286 0.443042-0.09832 1.178225-2.121554 1.148688-2.023229-0.02954-2.720293-0.228035-2.720293-0.228035z" style="opacity:.2"/>
 <circle cx="19.714285" cy="28.285713" r="14.285714" style="fill:#e4e4e4"/>
 <path d="m33.285714 24 2.142857-2.857143-5.714286-6.428571-4.285714 0.714285z" style="fill:#e4e4e4"/>
 <path d="m33.091183 18.575196s2.804588 0.25099 3.833407-0.628682c1.028819-0.879671 0.878916-1.116878 0.840984-1.690431-0.03793-0.573552-0.464819-0.800881-0.46747-1.484577-0.0026-0.683696 0.273324-0.771506 0.273324-0.771506h0.714286l0.714285 2.142857v-1.428571l2.857143 1.428571-2.142857-2.142857h2.857143l-2.857143-2.142857 2.857143-2.1428574-3.571429 0.7142854 1.428572-5.0000001-3.039977 4.5189812-1.245737-3.0904092v2.8571427l-1.428572-1.4285714 0.504093 2.5390468-3.361236-1.1104754 2.857143 2.1428574 1.428572 0.714285s-0.260877 1.24046-0.191602 1.878295c0.06927 0.637835 0.563852 1.365913 0.540987 1.808955-0.02286 0.443042-0.09832 1.178225-2.121554 1.148688-2.023229-0.02954-2.720293-0.228035-2.720293-0.228035z" style="fill:#e4e4e4"/>
 <circle cx="19.714285" cy="28.285713" r="11.428572" style="fill:#4f4f4f"/>
 <circle cx="19.714285" cy="28.285713" r="10.714286" style="fill:#c2352a"/>
 <rect x="24.714285" y="29.285622" width="5" height="1.4285715" ry=".71428573" style="opacity:.2"/>
 <rect transform="rotate(-30)" x="6.8782911" y="36.042038" width="5" height="1.4285715" ry=".71428573" style="opacity:.2"/>
 <rect x="24.714285" y="28.285713" width="5" height="1.4285715" ry=".71428573" style="fill:#e4e4e4"/>
 <rect transform="rotate(-30)" x="7.3782449" y="35.176094" width="5" height="1.4285715" ry=".71428573" style="fill:#e4e4e4"/>
 <rect transform="matrix(.8660254 .5 .5 -.8660254 0 0)" x="36.836761" y="-15.847554" width="5" height="1.4285715" ry=".71428573" style="opacity:.2"/>
 <rect transform="matrix(.8660254 .5 .5 -.8660254 0 0)" x="36.336807" y="-14.981608" width="5" height="1.4285715" ry=".71428573" style="fill:#e4e4e4"/>
 <path d="m19.714844 18.570312c-5.689333 0-10.341232 4.436038-10.691406 10.03711a10.714286 10.714286 0 0 0 9.4804685 10.30664c1.410866-0.225879 1.684277-0.552356 2.085938-0.851562 0.473506-0.352724 0.589844-1.455078 0.589844-1.455078s-0.044263-2.441951 0.054687-2.628906 1.237896-1.364464 1.181641-1.59961c-0.04802-0.200737-1.125072-0.95718-1.404297-1.175781-0.279225-0.2186-1.867188-1.226563-1.867188-1.226563s-0.24419-0.097823-0.27539-0.279296c-0.0312-0.181475 0.294921-0.34961 0.294921-0.34961s3.969934-1.752776 4.06836-1.958984c0.09898-0.207363-0.654738-0.595794-0.888672-1.154297-0.233934-0.558502 0.022647-1.397696 0.144531-1.484375 0 0 0.773316-0.023271 1.132813-0.056641 0.359497-0.03336 0.955687-0.233473 1.169922-1 0.214232-0.766526-1.385345-1.625055-2.607422-2.740234-0.677789-0.618503-0.840747-1.547451-0.855469-2.259766-0.534174-0.08157-1.072915-0.122886-1.613281-0.123047z" style="opacity:.2"/>
 <path d="m19.714285 17.571428c-5.917336 0-10.714286 4.79695-10.714286 10.714286 0.0016 4.213929 2.4731418 8.03561 6.3155698 9.765625 0.65489 0.04739 1.453736 0.06148 2.325613-0.02511 2.19637-0.218131 2.475713-0.611282 2.949219-0.964007 0.473506-0.352724 0.590123-1.453683 0.590123-1.453683s-0.04454-2.442789 0.05441-2.629744 1.2365-1.363626 1.180245-1.598772c-0.04802-0.200737-1.124235-0.957459-1.40346-1.17606-0.279225-0.2186-1.866629-1.226283-1.866629-1.226283s-0.245028-0.09894-0.276228-0.280413c-0.0312-0.181475 0.29576-0.348772 0.29576-0.348772s3.969654-1.752498 4.06808-1.958706c0.09898-0.207363-0.654738-0.596631-0.888672-1.155134-0.233934-0.558502 0.02181-1.397696 0.143694-1.484375 0 0 0.773316-0.02244 1.132813-0.05581 0.359497-0.03336 0.956245-0.233752 1.17048-1.000279 0.214232-0.766526-1.385347-1.624774-2.607424-2.739953-0.677789-0.618503-0.840467-1.54773-0.855189-2.260045-0.534174-0.08157-1.073753-0.122607-1.614119-0.122768z" style="fill:#e4e4e4"/>
</svg>

<?xml version="1.0" encoding="UTF-8" standalone="no"?>
<svg
   width="48"
   height="48"
   version="1.1"
   id="svg36573"
   sodipodi:docname="steam_icon_341800@48x48.svg"
   inkscape:version="1.1.1 (3bf5ae0d25, 2021-09-20, custom)"
   xmlns:inkscape="http://www.inkscape.org/namespaces/inkscape"
   xmlns:sodipodi="http://sodipodi.sourceforge.net/DTD/sodipodi-0.dtd"
   xmlns="http://www.w3.org/2000/svg"
   xmlns:svg="http://www.w3.org/2000/svg">
  <defs
     id="defs36577" />
  <sodipodi:namedview
     id="namedview36575"
     pagecolor="#505050"
     bordercolor="#eeeeee"
     borderopacity="1"
     inkscape:pageshadow="0"
     inkscape:pageopacity="0"
     inkscape:pagecheckerboard="0"
     showgrid="false"
     inkscape:zoom="9.555531"
     inkscape:cx="26.529138"
     inkscape:cy="27.209372"
     inkscape:window-width="1920"
     inkscape:window-height="1011"
     inkscape:window-x="0"
     inkscape:window-y="32"
     inkscape:window-maximized="1"
     inkscape:current-layer="svg36573">
    <inkscape:grid
       type="xygrid"
       id="grid36845" />
  </sodipodi:namedview>
  <circle
     style="opacity:0.2;fill:#000000;fill-opacity:1;stroke-width:0.731793"
     id="circle1933"
     cx="19.714285"
     cy="29.286142"
     r="14.285714" />
  <path
     style="opacity:0.2;fill:#000000;fill-opacity:1;stroke:none;stroke-width:0.714285px;stroke-linecap:butt;stroke-linejoin:miter;stroke-opacity:1"
     d="M 33.285714,25.000429 35.428571,22.143286 29.714285,15.714715 25.428571,16.429 Z"
     id="path1935" />
  <path
     style="opacity:0.2;fill:#000000;fill-opacity:1;stroke:none;stroke-width:0.714285px;stroke-linecap:butt;stroke-linejoin:miter;stroke-opacity:1"
     d="m 33.091183,19.575625 c 0,0 2.804588,0.25099 3.833407,-0.628682 1.028819,-0.879671 0.878916,-1.116878 0.840984,-1.690431 -0.03793,-0.573552 -0.464819,-0.800881 -0.46747,-1.484577 -0.0026,-0.683696 0.273324,-0.771506 0.273324,-0.771506 h 0.714286 l 0.714285,2.142857 v -1.428571 l 2.857143,1.428571 -2.142857,-2.142857 h 2.857143 l -2.857143,-2.142857 2.857143,-2.142857 -3.571429,0.714285 1.428572,-5 -3.039977,4.518981 -1.245737,-3.090409 v 2.857143 l -1.428572,-1.4285717 0.504093,2.5390467 -3.361236,-1.110475 2.857143,2.142857 1.428572,0.714285 c 0,0 -0.260877,1.24046 -0.191602,1.878295 0.06927,0.637835 0.563852,1.365913 0.540987,1.808955 -0.02286,0.443042 -0.09832,1.178225 -2.121554,1.148688 -2.023229,-0.02954 -2.720293,-0.228035 -2.720293,-0.228035 z"
     id="path1937"
     sodipodi:nodetypes="cssccccccccccccccccccccssscc" />
  <circle
     style="fill:#e4e4e4;fill-opacity:1;stroke-width:0.731793"
     id="path2734"
     cx="19.714285"
     cy="28.285713"
     r="14.285714" />
  <path
     style="fill:#e4e4e4;fill-opacity:1;stroke:none;stroke-width:0.714285px;stroke-linecap:butt;stroke-linejoin:miter;stroke-opacity:1"
     d="m 33.285714,24 2.142857,-2.857143 -5.714286,-6.428571 -4.285714,0.714285 z"
     id="path3031" />
  <path
     style="fill:#e4e4e4;fill-opacity:1;stroke:none;stroke-width:0.714285px;stroke-linecap:butt;stroke-linejoin:miter;stroke-opacity:1"
     d="m 33.091183,18.575196 c 0,0 2.804588,0.25099 3.833407,-0.628682 1.028819,-0.879671 0.878916,-1.116878 0.840984,-1.690431 -0.03793,-0.573552 -0.464819,-0.800881 -0.46747,-1.484577 C 37.295504,14.08781 37.571428,14 37.571428,14 h 0.714286 l 0.714285,2.142857 V 14.714286 L 41.857142,16.142857 39.714285,14 h 2.857143 L 39.714285,11.857143 42.571428,9.7142856 38.999999,10.428571 40.428571,5.4285709 37.388594,9.9475521 36.142857,6.8571429 v 2.8571427 l -1.428572,-1.4285714 0.504093,2.5390468 -3.361236,-1.1104754 2.857143,2.1428574 1.428572,0.714285 c 0,0 -0.260877,1.24046 -0.191602,1.878295 0.06927,0.637835 0.563852,1.365913 0.540987,1.808955 -0.02286,0.443042 -0.09832,1.178225 -2.121554,1.148688 -2.023229,-0.02954 -2.720293,-0.228035 -2.720293,-0.228035 z"
     id="path5759"
     sodipodi:nodetypes="cssccccccccccccccccccccssscc" />
  <circle
     style="fill:#4f4f4f;fill-opacity:1;stroke-width:0.585434"
     id="circle11261"
     cx="19.714285"
     cy="28.285713"
     r="11.428572" />
  <circle
     style="fill:#c2352a;fill-opacity:1;stroke-width:0.548844"
     id="circle11281"
     cx="19.714285"
     cy="28.285713"
     r="10.714286" />
  <rect
     style="opacity:0.2;fill:#000000;fill-opacity:1;stroke:none;stroke-width:0.714285"
     id="rect2029"
     width="5"
     height="1.4285715"
     x="24.714285"
     y="29.285622"
     ry="0.71428573" />
  <rect
     style="opacity:0.2;fill:#000000;fill-opacity:1;stroke:none;stroke-width:0.714286"
     id="rect2031"
     width="5"
     height="1.4285715"
     x="6.8782911"
     y="36.042038"
     ry="0.71428573"
     transform="rotate(-30)" />
  <rect
     style="fill:#e4e4e4;fill-opacity:1;stroke:none;stroke-width:0.714285"
     id="rect34557"
     width="5"
     height="1.4285715"
     x="24.714285"
     y="28.285713"
     ry="0.71428573" />
  <rect
     style="fill:#e4e4e4;fill-opacity:1;stroke:none;stroke-width:0.714286"
     id="rect34741"
     width="5"
     height="1.4285715"
     x="7.3782449"
     y="35.176094"
     ry="0.71428573"
     transform="rotate(-30)" />
  <rect
     style="opacity:0.2;fill:#000000;fill-opacity:1;stroke:none;stroke-width:0.714286"
     id="rect2033"
     width="5"
     height="1.4285715"
     x="36.836761"
     y="-15.847554"
     ry="0.71428573"
     transform="matrix(0.8660254,0.5,0.5,-0.8660254,0,0)" />
  <rect
     style="fill:#e4e4e4;fill-opacity:1;stroke:none;stroke-width:0.714286"
     id="rect34743"
     width="5"
     height="1.4285715"
     x="36.336807"
     y="-14.981608"
     ry="0.71428573"
     transform="matrix(0.8660254,0.5,0.5,-0.8660254,0,0)" />
  <path
     id="path35519"
     style="fill:#000000;fill-opacity:1;stroke-width:0.548844;opacity:0.2"
     d="M 19.714844 18.570312 C 14.025511 18.570312 9.3736117 23.00635 9.0234375 28.607422 A 10.714286 10.714286 0 0 0 18.503906 38.914062 C 19.914772 38.688183 20.188183 38.361706 20.589844 38.0625 C 21.06335 37.709776 21.179688 36.607422 21.179688 36.607422 C 21.179688 36.607422 21.135425 34.165471 21.234375 33.978516 C 21.333325 33.791561 22.472271 32.614052 22.416016 32.378906 C 22.367996 32.178169 21.290944 31.421726 21.011719 31.203125 C 20.732494 30.984525 19.144531 29.976562 19.144531 29.976562 C 19.144531 29.976562 18.900341 29.878739 18.869141 29.697266 C 18.837941 29.515791 19.164062 29.347656 19.164062 29.347656 C 19.164062 29.347656 23.133996 27.59488 23.232422 27.388672 C 23.331402 27.181309 22.577684 26.792878 22.34375 26.234375 C 22.109816 25.675873 22.366397 24.836679 22.488281 24.75 C 22.488281 24.75 23.261597 24.726729 23.621094 24.693359 C 23.980591 24.659999 24.576781 24.459886 24.791016 23.693359 C 25.005248 22.926833 23.405671 22.068304 22.183594 20.953125 C 21.505805 20.334622 21.342847 19.405674 21.328125 18.693359 C 20.793951 18.611789 20.25521 18.570473 19.714844 18.570312 z " />
  <path
     id="path2143"
     style="fill:#e4e4e4;fill-opacity:1;stroke-width:0.548844"
     d="m 19.714285,17.571428 c -5.917336,0 -10.7142858,4.79695 -10.7142858,10.714286 0.0016,4.213929 2.4731418,8.03561 6.3155698,9.765625 0.65489,0.04739 1.453736,0.06148 2.325613,-0.02511 2.19637,-0.218131 2.475713,-0.611282 2.949219,-0.964007 0.473506,-0.352724 0.590123,-1.453683 0.590123,-1.453683 0,0 -0.04454,-2.442789 0.05441,-2.629744 0.09895,-0.186955 1.2365,-1.363626 1.180245,-1.598772 -0.04802,-0.200737 -1.124235,-0.957459 -1.40346,-1.17606 -0.279225,-0.2186 -1.866629,-1.226283 -1.866629,-1.226283 0,0 -0.245028,-0.09894 -0.276228,-0.280413 -0.0312,-0.181475 0.29576,-0.348772 0.29576,-0.348772 0,0 3.969654,-1.752498 4.06808,-1.958706 0.09898,-0.207363 -0.654738,-0.596631 -0.888672,-1.155134 -0.233934,-0.558502 0.02181,-1.397696 0.143694,-1.484375 0,0 0.773316,-0.02244 1.132813,-0.05581 0.359497,-0.03336 0.956245,-0.233752 1.17048,-1.000279 0.214232,-0.766526 -1.385347,-1.624774 -2.607424,-2.739953 -0.677789,-0.618503 -0.840467,-1.54773 -0.855189,-2.260045 -0.534174,-0.08157 -1.073753,-0.122607 -1.614119,-0.122768 z"
     sodipodi:nodetypes="cccsscssscscsssssscc" />
</svg>
